X: 2289
T: Back Room, The
R: jig
M: 6/8
K: Gmajor
|:g2 d e2 B|dAB G3|GAB E3|DEB Adf|
gfd eBd|ABA G3|G2 B AGF|1 G3 GBd:|2 G3 G2 B||
c2 A D2 B|efb g2 d|edB G3|GAB E3|
cBA dBe|Bfa g2 d|edB GAB|AGF G3|
c2 A d2 B|efb g2 d|edB G3|GAB E3|
g2 d e2 B|dAB G3|GAB AGF|G3 GBd||

